src/assets/svg/labmet_name.svg

<svg width="193" height="48" viewBox="0 0 193 48" fill="none" xmlns="http://www.w3.org/2000/svg">
<path d="M0 48H31V42H6V0H0V48Z" fill="white"/>
<path fill-rule="evenodd" clip-rule="evenodd" d="M62 48H42C38.134 48 35 44.866 35 41V36C35 32.134 38.134 29 42 29H56V26C56 24.3431 54.6569 23 53 23H36V17H55C58.866 17 62 20.134 62 24V48ZM56 42H44C42.3431 42 41 40.6569 41 39V38C41 36.3431 42.3431 35 44 35H56V42Z" fill="white"/>
<path fill-rule="evenodd" clip-rule="evenodd" d="M66 48V0H72V17H87C90.866 17 94 20.134 94 24V41C94 44.866 90.866 48 87 48H66ZM72 42V23H85C86.6569 23 88 24.3431 88 26V39C88 40.6569 86.6569 42 85 42H72Z" fill="white"/>
<path d="M98 48H104V19L116 48H122L134 19V48H140V0H134L119 38.5L104 0H98V48Z" fill="white"/>
<path fill-rule="evenodd" clip-rule="evenodd" d="M171 48H151C147.134 48 144 44.866 144 41V24C144 20.134 147.134 17 151 17H164C167.866 17 171 20.134 171 24V35H150V39C150 40.6569 151.343 42 153 42H171V48ZM165 29H150V26C150 24.3431 151.343 23 153 23H162C163.657 23 165 24.3431 165 26V29Z" fill="white"/>
<path d="M181 48H187V23H193V17H187V8H181V17H175V23H181V48Z" fill="white"/>
</svg>

<svg width="193" height="48" fill="none" xmlns="http://www.w3.org/2000/svg">
<g clip-path="url(#a)">
<path d="M181 23v25h6V23h6v-6h-6V8h-6v9h-6v6h6ZM151 48h20v-6h-18a3 3 0 0 1-3-3v-4h21V24a7 7 0 0 0-7-7h-13a7 7 0 0 0-7 7v17a7 7 0 0 0 7 7ZM66 48V0h6v17h15a7 7 0 0 1 7 7v17a7 7 0 0 1-7 7H66ZM0 48V0h6v42h25v6H0ZM55 17H36v6h17a3 3 0 0 1 3 3v3H42a7 7 0 0 0-7 7v5a7 7 0 0 0 7 7h20V24a7 7 0 0 0-7-7Z" fill="#31446A"/>
<path d="M56 42H44a3 3 0 0 1-3-3v-1a3 3 0 0 1 3-3h12v7ZM72 23v19h13a3 3 0 0 0 3-3V26a3 3 0 0 0-3-3H72ZM165 29h-15v-3a3 3 0 0 1 3-3h9a3 3 0 0 1 3 3v3Z" fill="#fff"/>
<path d="M98 0v48h6V18.5L116 48h6l12-29.5V48h6V0h-6l-15 38.5L104 0h-6Z" fill="#31446A"/>
</g>
<defs>
<clipPath id="a">
<path fill="#fff" d="M0 0h193v48H0z"/>
</clipPath>
</defs>
</svg>
